!!!OTL: SYV SPRING
!!!ARE: Europa, Mitteleuropa, Daenemark, Vendsyssel
!!!SCT: E0992C
!!!YEM: Copyright 1995, estate of Helmut Schaffrath.
**kern
*ICvox
*Ivox
*M2/4
*k[f#]
*G:
{8d
=1
8g
8a
8b
8cc
=2
4dd
8b}
{8dd
=3
4cc
8a
8cc
=4
4b
8b}
{8a
=5
8g
8a
8b
8cc
=6
4dd
8b}
{8dd
=7
8cc
8a
8f#
8a
=8
4g
4r}
=9
{4a
4a
=10
4a}
{8a
8b
=11
8a
8g
8f#
8e
=12
8d
8e
8f#
8g}
=13
{4a
4a
=14
4a}
{8a
8b
=15
8a
8g
8f#
8e
=16
2d}
=17
{2dd
=18
2g
=19
2dd
=20
4g
8r}
==
!!!AGN: Tanz - Lied, Reigen, Siebensprung
!!!ONB: ESAC (Essen Associative Code) Database: ERK2
!!!AMT: simple duple
!!!AIN: vox
!!!EED: Helmut Schaffrath
!!!EEV: 1.0
*-
!!!title: @{OTL} [@{SCT}]
